icons/Color/scalable/gimp-tool-text.svg

<svg height="16" viewBox="0 0 16 16" width="16" xmlns="http://www.w3.org/2000/svg" xmlns:xlink="http://www.w3.org/1999/xlink"><linearGradient id="a" gradientTransform="matrix(.498259 0 0 .4886 -.799974 -1.273557)" gradientUnits="userSpaceOnUse" x1="23.30562" x2="14.38852" y1="24.843531" y2="9.590224"><stop offset="0" stop-color="#1f1f1f"/><stop offset="1" stop-color="#5c5c5c"/></linearGradient><linearGradient id="b" gradientTransform="matrix(.498259 0 0 .466519 -.799974 -.839637)" gradientUnits="userSpaceOnUse" x1="19.94445" x2="24.133829" y1="16.52726" y2="19.64213"><stop offset="0" stop-color="#fff"/><stop offset="1" stop-color="#b3b3b3" stop-opacity="0"/></linearGradient><g transform="matrix(.99996265 0 0 1.0000006 .000002 -.000002)"><g transform="matrix(.72600749388 0 0 .74921977851 -.0139589844 1.00682490477)"><path d="m15.18936 15.52077h-8.036215l-1.29334 3.99306h-5.3435322l7.5846652-19.0254512h6.127282l7.3323 18.9764012h-5.11633zm-6.790282-3.04679h5.459822l-2.820094-7.1442031z" fill="url(#a)" stroke="#000" stroke-linecap="round" stroke-linejoin="round" stroke-width=".994957"/><g fill="none"><path d="m15.68454 15.15955h-9.013464l-1.254403 3.36775h-3.413132l6.734925-17.065105h4.774014l6.51008 16.948265h-3.12286z" opacity=".379121" stroke="url(#b)" stroke-linejoin="round" stroke-width=".994958"/><path d="m8.168684 13.55188h5.979106" opacity=".510989" stroke="#999" stroke-linecap="round" stroke-width=".994957"/></g></g><path d="m.106817.106817h15.786366v.786367h-15.786366z" opacity="0" stroke="#900" stroke-linecap="round" stroke-width=".213633"/></g></svg>

<?xml version="1.0" encoding="UTF-8" standalone="no"?>
<!-- Created with Inkscape (http://www.inkscape.org/) -->

<svg
   xmlns:dc="http://purl.org/dc/elements/1.1/"
   xmlns:cc="http://creativecommons.org/ns#"
   xmlns:rdf="http://www.w3.org/1999/02/22-rdf-syntax-ns#"
   xmlns:svg="http://www.w3.org/2000/svg"
   xmlns="http://www.w3.org/2000/svg"
   xmlns:xlink="http://www.w3.org/1999/xlink"
   xmlns:sodipodi="http://sodipodi.sourceforge.net/DTD/sodipodi-0.dtd"
   xmlns:inkscape="http://www.inkscape.org/namespaces/inkscape"
   inkscape:export-ydpi="90.000000"
   inkscape:export-xdpi="90.000000"
   inkscape:export-filename="/home/jimmac/src/cvs/gnome/gimp/themes/Default/images/stock-layers-16.png"
   width="16"
   height="16"
   id="svg11300"
   sodipodi:version="0.32"
   inkscape:version="0.91+devel r"
   sodipodi:docname="gimp-tool-text.svg"
   version="1.0"
   viewBox="0 0 16 16">
  <sodipodi:namedview
     inkscape:cy="8.6335628"
     inkscape:cx="10.97107"
     inkscape:zoom="23.705438"
     inkscape:window-height="1016"
     inkscape:window-width="1920"
     inkscape:pageshadow="2"
     inkscape:pageopacity="0.0"
     borderopacity="0.17254902"
     bordercolor="#666"
     pagecolor="#ffffff"
     id="base"
     inkscape:showpageshadow="false"
     showborder="true"
     inkscape:window-x="0"
     inkscape:window-y="27"
     inkscape:current-layer="layer1"
     width="16px"
     height="16px"
     showgrid="true"
     inkscape:window-maximized="1"
     inkscape:document-units="px"
     showguides="false">
    <inkscape:grid
       type="xygrid"
       id="grid4022" />
  </sodipodi:namedview>
  <defs
     id="defs3">
    <linearGradient
       inkscape:collect="always"
       xlink:href="#linearGradient3682"
       id="linearGradient6334"
       gradientUnits="userSpaceOnUse"
       gradientTransform="matrix(0.498259,0,0,0.4886,-0.799974,-1.273557)"
       x1="23.30562"
       y1="24.843531"
       x2="14.38852"
       y2="9.5902243" />
    <linearGradient
       id="linearGradient3682">
      <stop
         id="stop3684"
         offset="0.0000000"
         style="stop-color:#1f1f1f;stop-opacity:1.0000000;" />
      <stop
         id="stop3686"
         offset="1.0000000"
         style="stop-color:#5c5c5c;stop-opacity:1.0000000;" />
    </linearGradient>
    <linearGradient
       inkscape:collect="always"
       xlink:href="#linearGradient2834"
       id="linearGradient6336"
       gradientUnits="userSpaceOnUse"
       gradientTransform="matrix(0.498259,0,0,0.466519,-0.799974,-0.839637)"
       x1="19.94445"
       y1="16.52726"
       x2="24.133829"
       y2="19.64213" />
    <linearGradient
       id="linearGradient2834">
      <stop
         id="stop2836"
         offset="0"
         style="stop-color:#ffffff;stop-opacity:1;" />
      <stop
         id="stop2838"
         offset="1.0000000"
         style="stop-color:#b3b3b3;stop-opacity:0.0000000;" />
    </linearGradient>
  </defs>
  <sodipodi:namedview
     stroke="#ef2929"
     fill="#eeeeec"
     pagecolor="#ffffff"
     bordercolor="#666666"
     borderopacity="0.25490196"
     inkscape:pageopacity="0.0"
     inkscape:pageshadow="2"
     inkscape:zoom="1"
     inkscape:cx="-14.198652"
     inkscape:cy="-5.1663457"
     inkscape:current-layer="layer1"
     showgrid="false"
     inkscape:grid-bbox="true"
     inkscape:document-units="px"
     inkscape:showpageshadow="false"
     inkscape:window-width="872"
     inkscape:window-height="659"
     inkscape:window-x="403"
     inkscape:window-y="296"
     width="32px"
     height="32px"
     id="namedview73" />
  <metadata
     id="metadata4">
    <rdf:RDF>
      <cc:Work
         rdf:about="">
        <dc:format>image/svg+xml</dc:format>
        <dc:type
           rdf:resource="http://purl.org/dc/dcmitype/StillImage" />
        <dc:creator>
          <cc:Agent>
            <dc:title>Jakub Steiner</dc:title>
          </cc:Agent>
        </dc:creator>
        <dc:source>http://jimmac.musichall.cz</dc:source>
        <cc:license
           rdf:resource="http://creativecommons.org/licenses/by-sa/2.0/" />
        <dc:title />
      </cc:Work>
      <cc:License
         rdf:about="http://creativecommons.org/licenses/by-sa/2.0/">
        <cc:permits
           rdf:resource="http://web.resource.org/cc/Reproduction" />
        <cc:permits
           rdf:resource="http://web.resource.org/cc/Distribution" />
        <cc:requires
           rdf:resource="http://web.resource.org/cc/Notice" />
        <cc:requires
           rdf:resource="http://web.resource.org/cc/Attribution" />
        <cc:permits
           rdf:resource="http://web.resource.org/cc/DerivativeWorks" />
        <cc:requires
           rdf:resource="http://web.resource.org/cc/ShareAlike" />
      </cc:License>
    </rdf:RDF>
  </metadata>
  <g
     id="layer1"
     inkscape:label="Layer 1"
     inkscape:groupmode="layer">
    <g
       id="g4033"
       transform="matrix(0.99996265,0,0,1.0000006,2.0196284e-6,-2.0251261e-6)">
      <g
         transform="matrix(1.0000371,0,0,1.0320108,0.1499531,0.36212686)"
         id="g4042">
        <g
           style="display:inline"
           id="draw_text"
           transform="matrix(0.72598056,0,0,0.72598056,18.755525,-167.08523)">
          <g
             transform="translate(-26.06052,231.0116)"
             id="g6314"
             inkscape:label="Layer 1">
            <path
               style="font-style:normal;font-variant:normal;font-weight:bold;font-stretch:normal;font-size:54.8693924px;line-height:125%;font-family:'Bitstream Vera Sans';text-align:start;writing-mode:lr-tb;text-anchor:start;fill:url(#linearGradient6334);fill-opacity:1;stroke:#000000;stroke-width:0.99495679;stroke-linecap:round;stroke-linejoin:round;stroke-miterlimit:4;stroke-dasharray:none;stroke-opacity:1"
               d="M 15.18936,15.52077 H 7.153145 l -1.29334,3.99306 H 0.5162728 L 8.100938,0.4883788 H 14.22822 L 21.56052,19.46478 H 16.44419 L 15.18936,15.52077 M 8.399078,12.47398 H 13.8589 L 11.038806,5.3297769 8.399078,12.47398"
               id="text1314"
               sodipodi:nodetypes="ccccccccccccc"
               inkscape:connector-curvature="0" />
            <path
               style="font-style:normal;font-variant:normal;font-weight:bold;font-stretch:normal;font-size:54.8693924px;line-height:125%;font-family:'Bitstream Vera Sans';text-align:start;writing-mode:lr-tb;text-anchor:start;opacity:0.37912083;fill:none;fill-opacity:1;stroke:url(#linearGradient6336);stroke-width:0.99495751;stroke-linecap:butt;stroke-linejoin:round;stroke-miterlimit:4;stroke-dasharray:none;stroke-opacity:1"
               d="M 15.68454,15.15955 H 6.671076 L 5.416673,18.5273 H 2.003541 L 8.738466,1.462195 H 13.51248 L 20.02256,18.41046 H 16.8997 Z"
               id="path2047"
               sodipodi:nodetypes="ccccccccc"
               inkscape:connector-curvature="0" />
            <path
               style="opacity:0.51098902;fill:none;fill-opacity:0.75;fill-rule:evenodd;stroke:#999999;stroke-width:0.99495739;stroke-linecap:round;stroke-linejoin:miter;stroke-miterlimit:4;stroke-dasharray:none;stroke-opacity:1"
               d="M 8.168684,13.55188 H 14.14779"
               id="path5142"
               sodipodi:nodetypes="cc"
               inkscape:connector-curvature="0" />
          </g>
        </g>
      </g>
      <rect
         y="0.10681672"
         x="0.1068167"
         height="0.78636658"
         width="15.786366"
         id="rect4024"
         style="opacity:0;fill:#000000;fill-opacity:1;stroke:#990000;stroke-width:0.2136334;stroke-linecap:round;stroke-linejoin:miter;stroke-miterlimit:4;stroke-dasharray:none;stroke-opacity:1;paint-order:stroke fill markers" />
    </g>
  </g>
</svg>
